!!!OTL: 2e. Christinchen, / die unglueckliche Braut.
!!!ARE: Europa, Mitteleuropa, Deutschland, Corvey
!!!SCT: E0002C
!!!TXL: @@DE
!!!YEM: Copyright 1995, estate of Helmut Schaffrath.
**kern	**text
*ICvox	*
*M4/4	*
*met(c)	*
*k[b-e-a-]	*
*E-:	*
!LO:TX:a:t=Erʒählend und langſam.	!
!LO:TX:a:t=Aus Corvey	!
{8e-L	Chri-
8gJ	.
=1	=1
4.b-/	-ſtin-
8a-	-chen
4g	gieng
4cc	in'n
=2	=2
(8.b-L	Gar-
16a-J)	.
4g	-ten,
4r}	.
{8e-L	Drei
8gJ	.
=3	=3
4.b-/	Ro-
8a-	-ſen
4g	wollt
4cc	ſie
=4	=4
(8.b-L	war-
16a-J)	.
4g	-ten,
4r}	.
{(8e-L	da
8fJ)	.
=5	=5
4g	hat
4e-	ſie
4e-	an
4g	dem
=6	=6
4b-	Him-
8f	-mel
8f	ge-
4f}	-ſehn,
{4f	daß
=7	=7
4g	ſie
4e-	im
4e-	Rhein-
4g	-ſtrom_ſollt
=8	=8
4b-	un-
8fL	-ter-
8gJ	.
4e-;}	-gehn.
==	==
!!!AGN: Sage, Maerchen -, Zauber - Lied, Ballade ?
!!!ONB: ESAC (Essen Associative Code) Database: ERK1
!!!AMT: simple quadruple
!!!AIN: vox
!!!EED: Helmut Schaffrath
!!!EEV: 1.0
!!!GTL: Nachtklaenge der Goettersage (Zaubermaeren)
!!!URL-scan: https://rosdok.uni-rostock.de/mcrviewer/recordIdentifier/rosdok_ppn745146120/iview2/phys_0078.iview2?x=-4.404412318551749&y=1200.476005977951&scale=0.6456904138606624&rotation=0&layout=singlePageLayout&logicalDiv=log_0009
!!!ENC: Anna Maria Matuszewska
!!!EEV: 2024/21/11
*-	*-
